X:8111
T:Willafjord
O:england
M:4/4
L:1/8
R:reel
K:D
A2FA2 DFA|B2GB2 DGB|A2FA2 DFA|EFGA GFED|
A2FA2 DFA|B2GB2 DGB|ABcd efge|1 f2d2 d2B2:|2 f2d2 d2e2||
f2df2 fdf|geaf gfeg|f2df2 Adf|e2ce2 Ace|
f2df2 fdf|geaf gfed|ABcd efge|1 f2d2 d2e2:|2 f2d2 d2B2||


